X: 25443
T: Marcha Do Entrelazado De Allariz
R: jig
M: 6/8
K: Dmajor
a3/2b/a1 a3/2b/a1|g3/2a/g f3/2e/d1|a3/2b/a1 a3/2b/a1|g3/2a/g1 f3/2e/d1|
g3/2d/g1 g3/2a/g1|f3/2g/f1 e3/2d/e1|f3/2f/f1 f3/2g/f1|e/f3/2e1d3:|
d3/2f/a1 d3/2f/a1|f3/2a/d'1 b3|e3/2a/g1 f3/2e/d1|c/a3/2g1 f3/2e/d1|
d3/2f/a1 d3/2f/a1|f3/2a/d'1 b3|e3/2a/g1 f3/2e/d1 e/g3/2f1 d3:|

